X: 18
T:Suite de LOUDEAC
M:4/4
L:1/8
Q:1/4=150
C:Yves BELOTTEAU
P:1 Rond
K:G
|:GBd2|g2d2|gf/2e/2dc|AcBG|GBd2|g2d2|gf/2e/2dc|ABG2:|! 
|:GBA2|GF/2E/2D2|GF/2E/2Dc|1BABG:|2BAG2:|!
P:2 Baleu
K:C
E|:Ace2|ed/2c/2B2|dc/2B/2Ac|1BA^GE:|2B^GA2|!
|:dc/2B/2AA|G2AA|dc/2B/2AA|GFE2:|!
P:3 Rond
|:eeccddee|eeczdzez|eeczdzez:|! 
eeedefgz|g3/2a/2gfede2|:e2defde2|c3/2d/2edcBA2:|!
P:4 RIQUENIEE
M:6/8
L:1/8
|:Bc2BA2|AG2BA2|Bc2BA2|AG2FE2:|
EFEc2c|cdcB3|BcBA2A|ABA^G3|
|:EDEAEA|cAce3|edcA2c|1B2A^G2E:|2B2^GA3|
